Obsidian-SemiLight/actions/22s/gtk-convert.svg

<svg viewBox="0 0 22 22" xmlns="http://www.w3.org/2000/svg"><path d="m11 3a7.9999981 8.000001 0 0 0 -7.7402344 6h1.0351563a7 7 0 0 1 6.7050781-5 7 7 0 0 1 6.308594 4h-3.609375v1h4.001953.998047v-.1132812-.8867188-4h-1v2.65625a7.9999981 8.000001 0 0 0 -6.699219-3.65625zm-7.6992188 10v.113281.886719 4h1v-2.65625a7.9999981 8.000001 0 0 0 6.6992188 3.65625 7.9999981 8.000001 0 0 0 7.740234-6h-1.035156a7 7 0 0 1 -6.705078 5 7 7 0 0 1 -6.3085938-4h3.609375v-1h-4-.0019531z" fill="#4d4d4d"/></svg>

<svg xmlns="http://www.w3.org/2000/svg" viewBox="0 0 22 22">
  <defs id="defs3051">
    <style type="text/css" id="current-color-scheme">
      .ColorScheme-Text {
        color:#4d4d4d;
      }
      </style>
  </defs>
 <path 
     style="fill:currentColor;fill-opacity:1;stroke:none" 
     d="M 11 3 A 7.9999981 8.000001 0 0 0 3.2597656 9 L 4.2949219 9 A 7 7 0 0 1 11 4 A 7 7 0 0 1 17.308594 8 L 13.699219 8 L 13.699219 9 L 17.701172 9 L 18.699219 9 L 18.699219 8.8867188 L 18.699219 8 L 18.699219 4 L 17.699219 4 L 17.699219 6.65625 A 7.9999981 8.000001 0 0 0 11 3 z M 3.3007812 13 L 3.3007812 13.113281 L 3.3007812 14 L 3.3007812 18 L 4.3007812 18 L 4.3007812 15.34375 A 7.9999981 8.000001 0 0 0 11 19 A 7.9999981 8.000001 0 0 0 18.740234 13 L 17.705078 13 A 7 7 0 0 1 11 18 A 7 7 0 0 1 4.6914062 14 L 8.3007812 14 L 8.3007812 13 L 4.3007812 13 L 4.2988281 13 L 3.3007812 13 z "
     class="ColorScheme-Text"
     />
</svg>
